X: 28633
T: Music O' Spey, The
R: strathspey
M: 4/4
K: Dmajor
A|Jf4 e2{f}ed|A6AA|JBBA B/d/-d3 A-|A3 B2c2d-|d3 d4d-|d3 d2-d3|
Je3-e4a-|a3z2A2Jf-|f3 e{a}ed A2|-A4A2JB2|{c}(3BAB d4A2|z AB2c2d2-|
dd4e3-|ea4d3-|d6z2|A4Jg4-|g{a}gfe2-e3|-e A2 Ja4{c'}a-|a{c'}ag f3 {a}g2|
a2 Jb4 a2-|a2 g3 f3-|fJf6{a}g|fe2z2 Ja2{c'}a|gf4 e2{a}e|
d A4z2A/A/|JB2{c}BA/B/d4-|A4B2c2|d3d4Je-|e3 a4d-|d6z2|

